packages/ffe-icons/icons/300/filled/md/chat.svg

<svg xmlns="http://www.w3.org/2000/svg" height="24" viewBox="0 -960 960 960" width="24"><path d="m241.539-260.001-80.076 80.076q-17.077 17.076-39.269 7.67-22.193-9.406-22.193-33.593v-581.843q0-30.308 21-51.308t51.308-21h615.382q30.308 0 51.308 21t21 51.308v455.382q0 30.308-21 51.308t-51.308 21H241.539Zm38.461-150h240q12.75 0 21.375-8.628 8.624-8.629 8.624-21.384 0-12.756-8.624-21.371-8.625-8.615-21.375-8.615H280q-12.75 0-21.374 8.628-8.625 8.629-8.625 21.384 0 12.756 8.625 21.371 8.624 8.615 21.374 8.615Zm0-120h400q12.75 0 21.375-8.628 8.624-8.629 8.624-21.384 0-12.756-8.624-21.371-8.625-8.615-21.375-8.615H280q-12.75 0-21.374 8.628-8.625 8.629-8.625 21.384 0 12.756 8.625 21.371 8.624 8.615 21.374 8.615Zm0-120h400q12.75 0 21.375-8.628 8.624-8.629 8.624-21.384 0-12.756-8.624-21.371-8.625-8.615-21.375-8.615H280q-12.75 0-21.374 8.628-8.625 8.629-8.625 21.384 0 12.756 8.625 21.371 8.624 8.615 21.374 8.615Z"/></svg>

<svg xmlns="http://www.w3.org/2000/svg" height="24" viewBox="0 -960 960 960" width="24"><path d="m241.539-260.001-80.076 80.076q-17.077 17.076-39.269 7.73-22.193-9.346-22.193-33.653v-581.843q0-30.308 21-51.308t51.308-21h615.382q30.308 0 51.308 21t21 51.308v455.382q0 30.308-21 51.308t-51.308 21H241.539ZM216.001-320h571.69q4.616 0 8.463-3.846 3.846-3.847 3.846-8.463v-455.382q0-4.616-3.846-8.463-3.847-3.846-8.463-3.846H172.309q-4.616 0-8.463 3.846-3.846 3.847-3.846 8.463v523.076L216.001-320ZM160-320v-480V-320Zm120-90.001h240q12.769 0 21.384-8.615T549.999-440q0-12.769-8.615-21.384T520-469.999H280q-12.769 0-21.384 8.615T250.001-440q0 12.769 8.615 21.384T280-410.001Zm0-120h400q12.769 0 21.384-8.615T709.999-560q0-12.769-8.615-21.384T680-589.999H280q-12.769 0-21.384 8.615T250.001-560q0 12.769 8.615 21.384T280-530.001Zm0-120h400q12.769 0 21.384-8.615T709.999-680q0-12.769-8.615-21.384T680-709.999H280q-12.769 0-21.384 8.615T250.001-680q0 12.769 8.615 21.384T280-650.001Z"/></svg>
